X: 2 % start of header
T:Torus:Taurus Tune
T:31 of 100,000,000,000,000
C: (Sid.)
O: Jeff Minter
R:Procedurally Generated
L: 1/8
K: D % scale: C major
V:1 name="Voice 1"
^A,16    |     |     |     | ^G,16    |     |     |     | ^G,16    |     |     |     | C16    |     |     |     | :|
V:2 name="Voice 2"
^D4    | ^C4    | ^C4    | F4    | ^C4    | B,4    | B,4    | ^D4    | ^C4    | B,4    | B,4    | ^D4    | F4    | ^D4    | ^D4    | G4    | :|
V:3 name="Voice 3"
^G1^F1^F1^A1|^F1E1E1^G1|^F1E1E1^G1|^A1^G1^G1c1|^F1E1E1^G1|E1D1D1^F1|E1D1D1^F1|^G1^F1^F1^A1|^F1E1E1^G1|E1D1D1^F1|E1D1D1^F1|^G1^F1^F1^A1|^A1^G1^G1c1|^G1^F1^F1^A1|^G1^F1^F1^A1|c1^A1^A1d1|:|
